X: 954
T: Güzel Bir Göz
C: Osman Nihat Akın
O: Turkey
F: http://compmusic.upf.edu/node/140
N: nihavent--sarki--curcuna--guzel_bir--osman_nihat_akin
N: makam= nihavent
N: form= sarki
N: usul= curcuna = 10/8
M: 10/8
L: 1/16
K: C _B _e  
Q: 1/4=192
%%MIDI tuningsystem comma53
z4 d2d4d4d6  | z4 d2e2 c2B4d6  | z4 A2B2 c2d3cB2 A2G2  | \
w:  Gü zel  bir  göz   |  be ni  *  at tı   |  bu  de *  rin   | 
B3A G2G2 ^F2G8-G2  | 
w:  sev *  *  da *  ya    | 
d16-d4  | d4 f2e2 d2c2 =B2c6  | z4 d2_1/4e2 f2g2 a2f2 e2d2  | \
w:  Ah   |  ah   |  bu  de *  rin   | 
g3f e2e2 d2d8-d2  | 
w:  sev *  *  da *  ya    | 
d4 e2d2 c2B2 A2G6  | z4 d2d4d4d6  | z4 d2e2 c2B4d6  | \
w:  SAZ  |  Gü zel  bir  göz   |  be ni  *  at tı   | 
z4 A2B2 c2d3cB2 A2G2  | 
w:  bu  de *  rin   | 
B3A G2G2 ^F2G8-G2  | d16-d4  | d4 f2e2 d2c2 =B2c6  | \
w:  sev *  *  da *  ya    |  Ah   |  ah   | 
z4 d2_1/4e2 f2g2 a2f2 e2d2  | 
w:  bu  de *  rin   | 
g3f e2e2 d2d8-d2  | d4 e2d2 c2B2 c2d6  | \
w:  sev *  *  da *  ya    |  SAZ  | 
d6b4a2 g2^f6  | g4 d2d2 f2e2 d2d4c2  | 
w:  Ben zi yor   |  şim *  di  *  be *  nim   | 
c4 d4 c2B2 A2B6  | z4 c2d4d2 c2B4A2  | B16-B4  | \
w:  öm *  *  rüm   |  u zun  rü *  ya  |  ya    | 
G6A4B2 A2G6  | g4 f2f2 e2e2 d2d4c2  | 
w:  Ben zi yor   |  şim *  di  *  be *  nim   | 
c4 d4 c2B2 A2B6  | z4 A2B4B2 A2G4^F2  | \
w:  öm *  *  rüm   |  u zun  rü *  ya  | 
G4 b2a2 g2^f2 a2g6  | ^f6g4g2 f2g6  | 
w:  ya   SAZ  |  Yâ ri  kar *  şım  | 
a4 c'2b2 a2g2 ^f2g6  | z4 d2e2 ^f2g2 a2b2 a2g2  | \
w:  da  *  gör *  sem  *  de   |  da la *  rım   | 
b4 a2g2 ^f2g2 a2b6  | 
w:  hül *  ya *  ya    | 
b6b4ba bc'a6  | agab g6g^f gaf6  | d'16-d'4  | \
w:  Ah   |   |  ah   | 
d'c'c'b baag ^f2fe ede4d2  | 
w:   | 
z4 d2e4f4g4f2  | f4 e2e2 d2d8-d2  | d4 e2d2 c2B2 c2d6  | \
w:  da la rım   |  hül *  ya *  ya    |  SAZ  | 
d6b4a2 g2^f6  | 
w:  Ben zi yor   | 
g4 d2d2 f2e2 d2d4c2  | c4 d4 c2B2 A2B6  | \
w:  şim *  di  *  be *  nim   |  öm *  *  rüm   | 
z4 c2d4d2 c2B4A2  | 
w:  u zun  rü *  ya  | 
B16-B4  | G6A4B2 A2G6  | g4 f2f2 e2e2 d2d4c2  | \
w:  ya    |  Ben zi yor   |  şim *  di  *  be *  nim   | 
c4 d4 c2B2 A2B6  | 
w:  öm *  *  rüm   | 
z4 A2B4B2 A2G4^F2  | G4 |
w:  u zun  rü *  ya  |  ya    | 


